X:1
T:Title
%%score { 1 | 2 }
L:1/8
M:4/4
K:Db
V:1 treble nm="Grand Piano"
V:2 bass 
V:1
 z4 z2 z[Q:1/4=100] D | F2 [FA]2 [GB]3 [FA] | [GB] [FA]2 [DF] [FA]2 [Fd]2 | %3
 [DFA]2 [A,DF]2 [DFA] [A,DF]2 [F,D] |[M:7/8] [A,DF]- [A,DF]3[K:bass] [A,CE]3 |[M:1/8] [F,D] | %6
[M:4/4][K:treble] [A,DF]2 [FA]2 [GB]3 [FA] | [GB] [FA]2 [DF] [FA]2 [Fd]2 | %8
 [DA]2 [DF]2 [DA] [CF]2 [CE] |[M:3/4] D6 |[M:1/4] F2 |[M:4/4] [CA] [CE]2 [DF] [CA]2 [CE]2 | %12
 [DF]6 [FA]2 | [Fd] [Fd]2 [Fd] [FA]2 A2 |[M:7/8] E-E-E- E3 z |[M:1/8] [CA] | %16
[M:4/4] [DA]2 [Fd]2 [FA]3 [FA] | [DGB]2 [DGd]2 [DFA]2 [A,DF]2 | [DA]2 [DF]2 [DA] [CF]2 [CE] | %19
[M:7/8] D-D-D- D3 z |] %20
V:2
 z4 z2 z [D,F,] | [D,A,D]2 [D,D]2 [D,D]3 [D,D] | [D,D]3 [D,A,] [D,D]2 [D,A,]2 | D,2 D,2 D, D,2 D, | %4
[M:7/8] A,,- A,,3 A,,3 |[M:1/8] D, |[M:4/4] D,2 [D,D]2 [D,D]3 [D,D] | %7
 [D,D]3 [D,A,] [D,D]2 [D,A,]2 | [F,A,]2 [D,A,]2 [A,,F,] [A,,A,]2 [A,,G,] |[M:3/4] [D,F,]6 | %10
[M:1/4] [D,A,D]2 |[M:4/4] [A,,A,] [A,,A,]2 [A,,A,] [A,,E,]2 [A,,A,]2 | [D,A,]6 [D,D]2 | %13
 [D,A,] [D,A,]2 [D,A,] [D,D]2 [F,A,D]2 |[M:7/8] [A,C]-[A,C]-[A,C]- [A,C]3 z |[M:1/8] [A,,G,] | %16
[M:4/4] [D,F,]2 [D,A,]2 [D,D]3 [D,D] | G,,2 B,,2 D,2 D,2 | %18
 [A,,F,]2 [A,,A,]2 [A,,F,] [A,,A,]2 [A,,G,] |[M:7/8] [D,F,]-[D,F,]-[D,F,]- [D,F,]3 z |] %20

